src/modules/70-pipeline/components/Dashboards/CardRailView/FailedBuildIcon.svg

<svg fill="none" height="15" viewBox="0 0 16 15" width="16" xmlns="http://www.w3.org/2000/svg"><path clip-rule="evenodd" d="m15.3662 14.1581c.6027-.3442.8124-1.1118.4682-1.7146l-6.7431-11.80967c-.11141-.195128-.2731-.356819-.46823-.468234-.60277-.34417-1.37042-.1345343-1.71459.468234l-6.743099 11.80967c-.1083783.1898-.165381.4046-.165381.6232 0 .6941.562684 1.2568 1.25679 1.2568h13.48621c.2186 0 .4334-.0571.6232-.1654zm-7.73011-13.10896c.11472-.200927.3706-.270805.57153-.156082.06504.037138.11894.091035.15608.156082l6.7431 11.80966c.1147.2009.0448.4568-.1561.5715-.0632.0361-.1348.0551-.2077.0551h-13.48621c-.23137 0-.418931-.1875-.418931-.4189 0-.0728.019001-.1444.055127-.2077zm-.10166 9.18566-.49117-5.97023 1.91379.01678-.49084 5.95345zm1.22847.641h-1.52491v1.5869h1.52491z" fill="#6b6d85" fill-rule="evenodd"/></svg>

<svg width="16" height="15" viewBox="0 0 16 15" fill="none" xmlns="http://www.w3.org/2000/svg">
  <path fill-rule="evenodd" clip-rule="evenodd" d="M15.3662 14.1581C15.9689 13.8139 16.1786 13.0463 15.8344 12.4435L9.0913 0.63383C8.97989 0.438702 8.8182 0.277011 8.62307 0.165596C8.0203 -0.178574 7.25265 0.0310617 6.90848 0.63383L0.165381 12.4435C0.0570027 12.6333 0 12.8481 0 13.0667C0 13.7608 0.562684 14.3235 1.25679 14.3235H14.743C14.9616 14.3235 15.1764 14.2664 15.3662 14.1581ZM7.63609 1.04914C7.75081 0.848213 8.00669 0.778335 8.20762 0.893058C8.27266 0.930196 8.32656 0.984093 8.3637 1.04914L15.1068 12.8588C15.2215 13.0597 15.1516 13.3156 14.9507 13.4303C14.8875 13.4664 14.8159 13.4854 14.743 13.4854H1.25679C1.02542 13.4854 0.837859 13.2979 0.837859 13.0665C0.837859 12.9937 0.85686 12.9221 0.892986 12.8588L7.63609 1.04914ZM7.53443 10.2348L7.04326 4.26457L8.95705 4.28135L8.46621 10.2348H7.53443ZM8.7629 10.8758H7.23799V12.4627H8.7629V10.8758Z" fill="#6B6D85"/>
</svg>
